BESTMOYEN.cube
#Créé avec CyberLink ColorDirector
TITLE "ColorDirector LUT"

LUT_3D_SIZE 8

0.000000 0.000000 0.000000
0.121569 0.000000 0.000000
0.262745 0.000000 0.000000
0.431373 0.000000 0.000000
0.603922 0.000000 0.000000
0.788235 0.000000 0.000000
0.941176 0.000000 0.000000
0.996078 0.000000 0.000000
0.000000 0.121569 0.000000
0.113725 0.121569 0.000000
0.266667 0.125490 0.000000
0.431373 0.121569 0.000000
0.607843 0.098039 0.000000
0.788235 0.054902 0.000000
0.941176 0.054902 0.000000
0.996078 0.054902 0.000000
0.000000 0.270588 0.000000
0.054902 0.270588 0.000000
0.258824 0.270588 0.000000
0.435294 0.282353 0.000000
0.615686 0.274510 0.000000
0.792157 0.247059 0.000000
0.941176 0.211765 0.000000
0.996078 0.211765 0.000000
0.000000 0.443137 0.000000
0.054902 0.443137 0.000000
0.168627 0.443137 0.000000
0.415686 0.443137 0.000000
0.615686 0.443137 0.000000
0.792157 0.447059 0.000000
0.941176 0.435294 0.000000
0.996078 0.439216 0.000000
0.000000 0.615686 0.000000
0.054902 0.615686 0.000000
0.109804 0.615686 0.000000
0.333333 0.611765 0.000000
0.580392 0.607843 0.000000
0.772549 0.607843 0.000000
0.933333 0.607843 0.000000
0.996078 0.600000 0.000000
0.000000 0.776471 0.000000
0.054902 0.776471 0.000000
0.109804 0.776471 0.000000
0.168627 0.776471 0.000000
0.513725 0.772549 0.000000
0.733333 0.764706 0.000000
0.913725 0.756863 0.000000
0.996078 0.749020 0.000000
0.000000 0.917647 0.000000
0.054902 0.917647 0.000000
0.109804 0.917647 0.000000
0.168627 0.917647 0.000000
0.388235 0.913725 0.000000
0.666667 0.905882 0.000000
0.866667 0.901961 0.000000
0.996078 0.890196 0.000000
0.000000 0.996078 0.000000
0.054902 0.996078 0.000000
0.109804 0.996078 0.000000
0.168627 0.996078 0.000000
0.223529 0.996078 0.000000
0.572549 0.996078 0.000000
0.796078 0.996078 0.000000
0.976471 0.996078 0.000000
0.003922 0.000000 0.125490
0.121569 0.000000 0.121569
0.266667 0.000000 0.121569
0.431373 0.000000 0.117647
0.607843 0.000000 0.105882
0.788235 0.000000 0.094118
0.941176 0.000000 0.094118
0.996078 0.000000 0.117647
0.000000 0.117647 0.121569
0.117647 0.117647 0.121569
0.270588 0.109804 0.113725
0.439216 0.094118 0.105882
0.611765 0.054902 0.094118
0.788235 0.054902 0.082353
0.941176 0.054902 0.086275
0.996078 0.054902 0.113725
0.000000 0.270588 0.113725
0.054902 0.274510 0.090196
0.262745 0.270588 0.086275
0.439216 0.278431 0.082353
0.619608 0.274510 0.062745
0.796078 0.247059 0.058824
0.941176 0.203922 0.070588
0.996078 0.207843 0.098039
0.000000 0.443137 0.054902
0.054902 0.443137 0.054902
0.168627 0.443137 0.054902
0.419608 0.443137 0.054902
0.615686 0.443137 0.054902
0.796078 0.443137 0.054902
0.941176 0.435294 0.054902
0.996078 0.431373 0.054902
0.000000 0.615686 0.054902
0.054902 0.615686 0.054902
0.109804 0.615686 0.054902
0.337255 0.611765 0.054902
0.580392 0.607843 0.054902
0.776471 0.607843 0.054902
0.933333 0.607843 0.054902
0.996078 0.596078 0.054902
0.000000 0.776471 0.054902
0.054902 0.776471 0.054902
0.109804 0.776471 0.054902
0.168627 0.776471 0.054902
0.517647 0.772549 0.054902
0.737255 0.764706 0.054902
0.913725 0.756863 0.054902
0.996078 0.749020 0.054902
0.000000 0.917647 0.054902
0.054902 0.917647 0.054902
0.109804 0.917647 0.054902
0.168627 0.917647 0.054902
0.384314 0.913725 0.054902
0.666667 0.905882 0.054902
0.870588 0.901961 0.054902
0.996078 0.890196 0.054902
0.000000 0.996078 0.054902
0.054902 0.996078 0.054902
0.109804 0.996078 0.054902
0.168627 0.996078 0.054902
0.223529 0.996078 0.054902
0.576471 0.996078 0.054902
0.796078 0.996078 0.054902
0.976471 0.996078 0.054902
0.007843 0.000000 0.282353
0.137255 0.000000 0.282353
0.274510 0.000000 0.274510
0.435294 0.000000 0.278431
0.611765 0.000000 0.282353
0.792157 0.000000 0.270588
0.941176 0.000000 0.258824
0.996078 0.000000 0.262745
0.000000 0.098039 0.282353
0.117647 0.105882 0.282353
0.274510 0.094118 0.274510
0.439216 0.058824 0.274510
0.615686 0.054902 0.270588
0.796078 0.054902 0.262745
0.941176 0.054902 0.250980
0.996078 0.054902 0.258824
0.000000 0.262745 0.274510
0.054902 0.262745 0.274510
0.270588 0.270588 0.270588
0.443137 0.262745 0.262745
0.623529 0.247059 0.254902
0.796078 0.227451 0.250980
0.941176 0.184314 0.247059
0.996078 0.188235 0.250980
0.000000 0.443137 0.278431
0.054902 0.443137 0.270588
0.109804 0.443137 0.235294
0.427451 0.443137 0.235294
0.623529 0.443137 0.239216
0.796078 0.439216 0.239216
0.941176 0.431373 0.235294
0.996078 0.419608 0.243137
0.000000 0.615686 0.235294
0.054902 0.615686 0.211765
0.109804 0.615686 0.196078
0.341176 0.611765 0.196078
0.588235 0.607843 0.192157
0.776471 0.607843 0.203922
0.937255 0.603922 0.219608
0.996078 0.592157 0.239216
0.000000 0.776471 0.117647
0.054902 0.776471 0.109804
0.109804 0.776471 0.109804
0.168627 0.776471 0.109804
0.513725 0.772549 0.109804
0.737255 0.764706 0.121569
0.913725 0.756863 0.180392
0.996078 0.745098 0.219608
0.000000 0.917647 0.109804
0.054902 0.917647 0.109804
0.109804 0.917647 0.109804
0.168627 0.917647 0.109804
0.384314 0.913725 0.109804
0.670588 0.905882 0.109804
0.870588 0.901961 0.129412
0.996078 0.890196 0.211765
0.000000 0.996078 0.109804
0.054902 0.996078 0.109804
0.109804 0.996078 0.109804
0.168627 0.996078 0.109804
0.223529 0.996078 0.109804
0.584314 0.996078 0.109804
0.800000 0.996078 0.180392
0.980392 0.996078 0.227451
0.027451 0.000000 0.462745
0.156863 0.000000 0.462745
0.294118 0.000000 0.454902
0.443137 0.000000 0.450980
0.615686 0.000000 0.447059
0.792157 0.000000 0.443137
0.941176 0.000000 0.439216
0.996078 0.000000 0.439216
0.000000 0.090196 0.462745
0.133333 0.082353 0.458824
0.286275 0.058824 0.454902
0.443137 0.054902 0.450980
0.615686 0.054902 0.447059
0.792157 0.054902 0.443137
0.941176 0.054902 0.439216
0.996078 0.054902 0.431373
0.000000 0.250980 0.454902
0.054902 0.247059 0.454902
0.262745 0.247059 0.454902
0.439216 0.239216 0.450980
0.619608 0.227451 0.443137
0.796078 0.188235 0.435294
0.941176 0.109804 0.427451
0.996078 0.109804 0.423529
0.000000 0.427451 0.447059
0.054902 0.427451 0.447059
0.156863 0.431373 0.443137
0.435294 0.439216 0.439216
0.619608 0.431373 0.431373
0.796078 0.419608 0.427451
0.941176 0.411765 0.419608
0.996078 0.407843 0.419608
0.000000 0.611765 0.450980
0.054902 0.611765 0.447059
0.109804 0.611765 0.435294
0.321569 0.611765 0.396078
0.592157 0.607843 0.403922
0.784314 0.607843 0.415686
0.937255 0.600000 0.419608
0.996078 0.588235 0.419608
0.000000 0.772549 0.439216
0.054902 0.772549 0.431373
0.109804 0.776471 0.396078
0.168627 0.776471 0.372549
0.509804 0.772549 0.376471
0.741176 0.764706 0.380392
0.917647 0.752941 0.396078
0.996078 0.749020 0.415686
0.000000 0.917647 0.392157
0.054902 0.917647 0.376471
0.109804 0.917647 0.360784
0.168627 0.917647 0.360784
0.380392 0.913725 0.356863
0.674510 0.905882 0.368627
0.878431 0.901961 0.384314
0.996078 0.890196 0.407843
0.000000 0.996078 0.368627
0.054902 0.996078 0.368627
0.109804 0.996078 0.368627
0.168627 0.996078 0.368627
0.223529 0.996078 0.368627
0.596078 0.996078 0.376471
0.807843 0.996078 0.392157
0.984314 0.996078 0.407843
0.050980 0.000000 0.647059
0.164706 0.000000 0.643137
0.298039 0.000000 0.643137
0.443137 0.000000 0.639216
0.615686 0.000000 0.627451
0.788235 0.000000 0.619608
0.941176 0.000000 0.615686
0.996078 0.000000 0.607843
0.000000 0.054902 0.643137
0.149020 0.054902 0.643137
0.298039 0.054902 0.639216
0.447059 0.054902 0.635294
0.615686 0.054902 0.627451
0.792157 0.054902 0.619608
0.941176 0.054902 0.615686
0.996078 0.054902 0.603922
0.000000 0.223529 0.639216
0.054902 0.239216 0.639216
0.274510 0.239216 0.635294
0.443137 0.227451 0.631373
0.615686 0.207843 0.623529
0.792157 0.168627 0.615686
0.941176 0.109804 0.607843
0.996078 0.109804 0.596078
0.000000 0.407843 0.631373
0.054902 0.407843 0.631373
0.109804 0.403922 0.627451
0.423529 0.407843 0.623529
0.607843 0.407843 0.615686
0.788235 0.403922 0.603922
0.941176 0.396078 0.596078
0.996078 0.392157 0.588235
0.000000 0.592157 0.615686
0.054902 0.592157 0.615686
0.109804 0.592157 0.611765
0.364706 0.596078 0.607843
0.596078 0.600000 0.603922
0.780392 0.592157 0.596078
0.937255 0.584314 0.588235
0.996078 0.580392 0.584314
0.000000 0.772549 0.615686
0.054902 0.772549 0.615686
0.109804 0.772549 0.607843
0.250980 0.772549 0.592157
0.494118 0.772549 0.556863
0.749020 0.764706 0.564706
0.913725 0.756863 0.584314
0.996078 0.752941 0.592157
0.000000 0.913725 0.603922
0.054902 0.913725 0.600000
0.109804 0.909804 0.596078
0.168627 0.913725 0.564706
0.403922 0.913725 0.545098
0.678431 0.905882 0.549020
0.882353 0.901961 0.560784
0.996078 0.890196 0.580392
0.000000 0.996078 0.600000
0.054902 0.996078 0.592157
0.109804 0.996078 0.576471
0.168627 0.996078 0.549020
0.333333 0.996078 0.549020
0.611765 0.996078 0.552941
0.815686 0.996078 0.560784
0.984314 0.996078 0.576471
0.054902 0.000000 0.831373
0.168627 0.000000 0.831373
0.305882 0.000000 0.827451
0.462745 0.000000 0.823529
0.627451 0.000000 0.811765
0.796078 0.000000 0.803922
0.941176 0.000000 0.796078
0.996078 0.000000 0.776471
0.043137 0.054902 0.831373
0.160784 0.054902 0.827451
0.298039 0.054902 0.823529
0.462745 0.054902 0.819608
0.627451 0.054902 0.811765
0.792157 0.054902 0.800000
0.941176 0.054902 0.792157
0.996078 0.054902 0.776471
0.000000 0.235294 0.823529
0.094118 0.235294 0.819608
0.282353 0.227451 0.819608
0.462745 0.215686 0.811765
0.627451 0.200000 0.807843
0.788235 0.168627 0.796078
0.941176 0.109804 0.788235
0.996078 0.109804 0.772549
0.000000 0.392157 0.811765
0.054902 0.392157 0.811765
0.164706 0.392157 0.807843
0.439216 0.407843 0.800000
0.611765 0.403922 0.796078
0.780392 0.396078 0.788235
0.941176 0.384314 0.776471
0.996078 0.392157 0.760784
0.000000 0.572549 0.796078
0.054902 0.572549 0.796078
0.109804 0.568627 0.792157
0.356863 0.560784 0.788235
0.580392 0.568627 0.784314
0.768627 0.572549 0.776471
0.929412 0.572549 0.760784
0.996078 0.568627 0.749020
0.000000 0.745098 0.772549
0.054902 0.745098 0.772549
0.109804 0.749020 0.772549
0.298039 0.749020 0.768627
0.545098 0.752941 0.764706
0.752941 0.756863 0.760784
0.909804 0.749020 0.752941
0.996078 0.749020 0.749020
0.000000 0.909804 0.772549
0.054902 0.909804 0.772549
0.109804 0.905882 0.764706
0.184314 0.905882 0.760784
0.517647 0.905882 0.752941
0.690196 0.905882 0.729412
0.890196 0.898039 0.741176
0.996078 0.890196 0.752941
0.000000 0.996078 0.760784
0.054902 0.996078 0.760784
0.109804 0.996078 0.756863
0.360784 0.996078 0.756863
0.521569 0.996078 0.741176
0.654902 0.996078 0.725490
0.831373 0.996078 0.729412
0.988235 0.996078 0.737255
0.109804 0.000000 0.941176
0.203922 0.000000 0.941176
0.333333 0.000000 0.941176
0.494118 0.000000 0.941176
0.639216 0.000000 0.941176
0.792157 0.000000 0.941176
0.941176 0.000000 0.941176
0.996078 0.000000 0.937255
0.098039 0.054902 0.941176
0.196078 0.054902 0.941176
0.333333 0.054902 0.941176
0.490196 0.054902 0.941176
0.639216 0.054902 0.941176
0.788235 0.054902 0.941176
0.937255 0.054902 0.941176
0.996078 0.054902 0.937255
0.043137 0.235294 0.941176
0.172549 0.235294 0.941176
0.317647 0.227451 0.941176
0.474510 0.227451 0.941176
0.627451 0.219608 0.941176
0.784314 0.207843 0.941176
0.933333 0.192157 0.941176
0.996078 0.109804 0.929412
0.000000 0.380392 0.941176
0.054902 0.392157 0.941176
0.286275 0.411765 0.941176
0.454902 0.411765 0.941176
0.615686 0.407843 0.941176
0.772549 0.407843 0.941176
0.925490 0.403922 0.933333
0.996078 0.384314 0.921569
0.000000 0.549020 0.941176
0.054902 0.549020 0.941176
0.109804 0.549020 0.941176
0.388235 0.549020 0.941176
0.592157 0.568627 0.933333
0.760784 0.568627 0.925490
0.913725 0.568627 0.917647
0.996078 0.568627 0.905882
0.000000 0.717647 0.925490
0.054902 0.717647 0.925490
0.109804 0.717647 0.925490
0.352941 0.717647 0.921569
0.549020 0.717647 0.917647
0.741176 0.733333 0.913725
0.901961 0.741176 0.905882
0.996078 0.741176 0.898039
0.000000 0.878431 0.909804
0.054902 0.878431 0.909804
0.109804 0.882353 0.905882
0.337255 0.882353 0.905882
0.545098 0.886275 0.905882
0.733333 0.890196 0.901961
0.894118 0.894118 0.898039
0.996078 0.890196 0.894118
0.000000 0.996078 0.905882
0.054902 0.996078 0.905882
0.109804 0.996078 0.901961
0.380392 0.996078 0.901961
0.564706 0.996078 0.894118
0.737255 0.996078 0.890196
0.862745 0.996078 0.882353
0.992157 0.996078 0.882353
0.152941 0.000000 0.996078
0.231373 0.000000 0.996078
0.333333 0.000000 0.996078
0.458824 0.000000 0.996078
0.592157 0.000000 0.996078
0.733333 0.000000 0.996078
0.870588 0.000000 0.996078
0.996078 0.000000 0.996078
0.145098 0.054902 0.996078
0.223529 0.054902 0.996078
0.329412 0.054902 0.996078
0.454902 0.054902 0.996078
0.592157 0.054902 0.996078
0.733333 0.054902 0.996078
0.870588 0.054902 0.996078
0.996078 0.054902 0.996078
0.117647 0.223529 0.996078
0.200000 0.223529 0.996078
0.317647 0.223529 0.996078
0.450980 0.227451 0.996078
0.588235 0.227451 0.996078
0.729412 0.235294 0.996078
0.870588 0.243137 0.996078
0.996078 0.239216 0.996078
0.098039 0.392157 0.996078
0.188235 0.396078 0.996078
0.309804 0.396078 0.996078
0.447059 0.396078 0.996078
0.584314 0.400000 0.996078
0.729412 0.403922 0.996078
0.870588 0.407843 0.996078
0.996078 0.415686 0.996078
0.000000 0.513725 0.996078
0.054902 0.513725 0.996078
0.227451 0.521569 0.996078
0.443137 0.552941 0.996078
0.584314 0.556863 0.996078
0.729412 0.560784 0.996078
0.870588 0.568627 0.996078
0.996078 0.572549 0.996078
0.000000 0.678431 0.996078
0.054902 0.678431 0.996078
0.211765 0.678431 0.996078
0.400000 0.682353 0.996078
0.564706 0.694118 0.996078
0.733333 0.717647 0.996078
0.870588 0.725490 0.996078
0.996078 0.737255 0.996078
0.000000 0.831373 0.996078
0.054902 0.835294 0.996078
0.262745 0.835294 0.996078
0.427451 0.839216 0.996078
0.580392 0.847059 0.996078
0.729412 0.854902 0.996078
0.882353 0.878431 0.996078
0.996078 0.882353 0.996078
0.039216 0.976471 0.996078
0.164706 0.976471 0.996078
0.301961 0.976471 0.996078
0.450980 0.980392 0.996078
0.596078 0.984314 0.996078
0.749020 0.988235 0.996078
0.882353 0.992157 0.996078
0.996078 0.996078 0.996078


